images/icon-strategy.svg

<svg fill="none" height="55" viewBox="0 0 55 55" width="55" xmlns="http://www.w3.org/2000/svg" xmlns:xlink="http://www.w3.org/1999/xlink"><clipPath id="a"><path d="m0 0h55v55h-55z"/></clipPath><g clip-path="url(#a)" fill="#f46662"><path d="m30.1407 42.1903h-5.266c-.4847 0-.8776.3929-.8776.8776s.3929.8777.8776.8777h5.266c.4847 0 .8777-.393.8777-.8777s-.393-.8776-.8777-.8776z"/><path d="m54.9956 46.4907c-.0036-.0356-.0096-.0699-.0171-.1036-.0018-.0078-.004-.0154-.006-.0232-.0068-.0268-.0146-.0531-.0239-.0788-.0029-.0082-.0057-.0163-.0089-.0244-.0117-.0302-.0248-.0595-.0396-.088-.0011-.0018-.0017-.0039-.0027-.0059-.0045-.0085-4.8709-9.1687-4.8709-9.1687v-23.9045c0-.4847-.393-.8776-.8777-.8776s-.8776.3929-.8776.8776v23.2456h-41.54259v-24.6998c0-1.4519 1.18109-2.63298 2.63298-2.63298h34.82251c.4847 0 .8776-.39296.8776-.87766s-.3929-.87766-.8776-.87766h-34.8224c-2.41976 0-4.3883 1.96853-4.3883 4.3883v25.3587l-4.866326 9.1602c-.0055.0105-.006202.0124-.0071378.0144-.0148617.0285-.0279681.058-.0396702.0881-.0031596.008-.0059681.0161-.0087766.0242-.0092447.0258-.0170851.0521-.0238724.0791-.0019893.0077-.0042127.0152-.005851.023-.0074894.0337-.01357451.068-.01708515.103-.00315957.0295-.00468085.0587-.00468085.0885v1.7553c0 2.4197 1.96853 4.3883 4.3883 4.3883h46.2234c2.4198 0 4.3883-1.9686 4.3883-4.3883v-1.7553c0-.0298-.0015-.059-.0044-.0879zm-48.617-8.3962h42.2427l4.0409 7.6064h-50.32447zm44.2331 12.8724h-46.2234c-1.45189 0-2.63298-1.1811-2.63298-2.633v-.8777h51.48938v.8777c0 1.4519-1.1811 2.633-2.633 2.633z"/><path d="m49.4413 4.03314h2.5621l-20.9472 20.94706-6.4843-6.4843c-.3427-.3427-.8984-.3427-1.2411 0l-14.58985 14.5898c-.34275.3427-.34275.8985 0 1.2411.17132.1713.396.2571.62057.2571.22456 0 .44924-.0857.62056-.2571l13.96922-13.9692 6.4842 6.4843c.3428.3427.8985.3427 1.2412 0l21.5678-21.56764v2.56207c0 .4847.393.87766.8777.87766s.8776-.39296.8776-.87766v-4.68085c0-.48471-.3929-.87766-.8776-.87766h-4.6809c-.4847 0-.8776.39295-.8776.87766 0 .4847.3928.87766.8776.87766z"/></g></svg>

<svg width="55" height="55" viewBox="0 0 55 55" fill="none" xmlns="http://www.w3.org/2000/svg">
<g clip-path="url(#clip0)">
<path d="M30.1407 42.1903H24.8747C24.39 42.1903 23.9971 42.5832 23.9971 43.0679C23.9971 43.5526 24.39 43.9456 24.8747 43.9456H30.1407C30.6254 43.9456 31.0184 43.5526 31.0184 43.0679C31.0184 42.5832 30.6254 42.1903 30.1407 42.1903Z" fill="#F46662"/>
<path d="M54.9956 46.4907C54.992 46.4551 54.986 46.4208 54.9785 46.3871C54.9767 46.3793 54.9745 46.3717 54.9725 46.3639C54.9657 46.3371 54.9579 46.3108 54.9486 46.2851C54.9457 46.2769 54.9429 46.2688 54.9397 46.2607C54.928 46.2305 54.9149 46.2012 54.9001 46.1727C54.899 46.1709 54.8984 46.1688 54.8974 46.1668C54.8929 46.1583 50.0265 36.9981 50.0265 36.9981V13.0936C50.0265 12.6089 49.6335 12.216 49.1488 12.216C48.6641 12.216 48.2712 12.6089 48.2712 13.0936V36.3392H6.72861V11.6394C6.72861 10.1875 7.9097 9.00642 9.36159 9.00642H44.1841C44.6688 9.00642 45.0617 8.61346 45.0617 8.12876C45.0617 7.64406 44.6688 7.2511 44.1841 7.2511H9.3617C6.94194 7.2511 4.9734 9.21963 4.9734 11.6394V36.9981L0.107074 46.1583C0.101574 46.1688 0.100872 46.1707 0.0999362 46.1727C0.0850745 46.2012 0.0719681 46.2307 0.060266 46.2608C0.0571064 46.2688 0.0542979 46.2769 0.0514894 46.285C0.0422447 46.3108 0.0344043 46.3371 0.027617 46.3641C0.0256277 46.3718 0.0234043 46.3793 0.021766 46.3871C0.0142766 46.4208 0.00819149 46.4551 0.00468085 46.4901C0.00152128 46.5196 0 46.5488 0 46.5786V48.3339C0 50.7536 1.96853 52.7222 4.3883 52.7222H50.6117C53.0315 52.7222 55 50.7536 55 48.3339V46.5786C55 46.5488 54.9985 46.5196 54.9956 46.4907ZM6.3786 38.0945H48.6213L52.6622 45.7009H2.33773L6.3786 38.0945ZM50.6117 50.9669H4.3883C2.93641 50.9669 1.75532 49.7858 1.75532 48.3339V47.4562H53.2447V48.3339C53.2447 49.7858 52.0636 50.9669 50.6117 50.9669Z" fill="#F46662"/>
<path d="M49.4413 4.03314H52.0034L31.0562 24.9802L24.5719 18.4959C24.2292 18.1532 23.6735 18.1532 23.3308 18.4959L8.74095 33.0857C8.3982 33.4284 8.3982 33.9842 8.74095 34.3268C8.91227 34.4981 9.13695 34.5839 9.36152 34.5839C9.58608 34.5839 9.81076 34.4982 9.98208 34.3268L23.9513 20.3576L30.4355 26.8419C30.7783 27.1846 31.334 27.1846 31.6767 26.8419L53.2445 5.27426V7.83633C53.2445 8.32103 53.6375 8.71399 54.1222 8.71399C54.6069 8.71399 54.9998 8.32103 54.9998 7.83633V3.15548C54.9998 2.67077 54.6069 2.27782 54.1222 2.27782H49.4413C48.9566 2.27782 48.5637 2.67077 48.5637 3.15548C48.5637 3.64018 48.9565 4.03314 49.4413 4.03314Z" fill="#F46662"/>
</g>
<defs>
<clipPath id="clip0">
<rect width="55" height="55" fill="white"/>
</clipPath>
</defs>
</svg>
